X: 3027
M: 3/2
L: 1/8
K: C
c e3f |\
d4 g3c A3d | B4 G3c e3f |\
d3e c3B A3G | G6 z ::[M:C|] d2 |\
d2cB c2d2 | e2c2 f2fg |
a2gf e3f | f6 ef |\
g2c2 A2d2 | B2G2 c3d |\
e3d d3c | c6 ::\
cde2 def2 | e2c2 g2fe |\
defg e3d |
c2B2 AB cd |\
d2 d2 B2 | e2 ed c2 |\
f2 e2 f2 | dc de d2 |\
g2g2e2 | a2f2 ^f2 |
g2 a2 ^f2 | g6 !segno!|\
d2 d2 B2 | e2 ed c2 |\
f2 e2 f2 | dc de d2 !segno!|\
g2 g2 e2 | a2 e2 f2 |\
d3  c B2 | Hc6 |]


